icon-themes/sifr_svg/cmd/sc_fontworkshapetype.svg

<svg viewBox="0 0 16 16" xmlns="http://www.w3.org/2000/svg"><path d="m3 1v2h4c.552285 0 1 .4477153 1 1v1h-4c-1.6568542 0-3 1.343146-3 3s1.3431458 3 3 3h6v-7c0-1.6568542-1.343146-3-3-3zm1 6h4v2h-4c-.5522847 0-1-.447715-1-1s.4477153-1 1-1zm12 2a7 7 0 0 0 -7 7h2a5 5 0 0 1 5-5z" fill="#555753"/></svg>

<svg xmlns="http://www.w3.org/2000/svg" viewBox="0 0 16 16">
  <path
     style="fill:#555753"
     d="M 3 1 L 3 3 L 7 3 C 7.552285 3 8 3.4477153 8 4 L 8 5 L 4 5 C 2.3431458 5 1 6.343146 1 8 C 1 9.656854 2.3431458 11 4 11 L 10 11 L 10 4 C 10 2.3431458 8.656854 1 7 1 L 3 1 z M 4 7 L 8 7 L 8 9 L 4 9 C 3.4477153 9 3 8.552285 3 8 C 3 7.447715 3.4477153 7 4 7 z M 16 9 A 7 7 0 0 0 9 16 L 11 16 A 5 5 0 0 1 16 11 L 16 9 z "
     />
</svg>
